assets/images/visa.svg

<?xml version="1.0" encoding="UTF-8" standalone="no"?>


<!-- Uploaded to: SVG Repo, www.svgrepo.com, Generator: SVG Repo Mixer Tools -->
<svg 
   xmlns:sketch="http://www.bohemiancoding.com/sketch/ns"
   xmlns:dc="http://purl.org/dc/elements/1.1/"
   xmlns:cc="http://creativecommons.org/ns#"
   xmlns:rdf="http://www.w3.org/1999/02/22-rdf-syntax-ns#"
   xmlns:svg="http://www.w3.org/2000/svg"
   xmlns="http://www.w3.org/2000/svg"
   xmlns:sodipodi="http://sodipodi.sourceforge.net/DTD/sodipodi-0.dtd"
   xmlns:inkscape="http://www.inkscape.org/namespaces/inkscape"
   version="1.1"
   id="Layer_1"
   x="0px"
   y="0px"
   width="800px"
   height="800px"
   viewBox="0 0 750 471"
   enable-background="new 0 0 750 471"
   xml:space="preserve"
   sodipodi:docname="visa.svg"
   inkscape:version="0.92.2 5c3e80d, 2017-08-06">
<metadata
     id="metadata4882">
<rdf:RDF>
<cc:Work
         rdf:about="">
<dc:format>image/svg+xml</dc:format>
<dc:type
           rdf:resource="http://purl.org/dc/dcmitype/StillImage" />
</cc:Work>
</rdf:RDF>
</metadata>
<defs
     id="defs4880" />
<sodipodi:namedview
     pagecolor="#ffffff"
     bordercolor="#666666"
     borderopacity="1"
     objecttolerance="10"
     gridtolerance="10"
     guidetolerance="10"
     inkscape:pageopacity="0"
     inkscape:pageshadow="2"
     inkscape:window-width="1428"
     inkscape:window-height="869"
     id="namedview4878"
     showgrid="false"
     inkscape:zoom="0.384"
     inkscape:cx="83.333333"
     inkscape:cy="235.5"
     inkscape:window-x="164"
     inkscape:window-y="478"
     inkscape:window-maximized="0"
     inkscape:current-layer="Layer_1" />
<title
     id="title4867">Slice 1</title>
<desc
     id="desc4869">Created with Sketch.</desc>
<g
     id="visa"
     sketch:type="MSLayerGroup">
<path
       id="Shape"
       sketch:type="MSShapeGroup"
       fill="#0E4595"
       d="M278.198,334.228l33.36-195.763h53.358l-33.384,195.763H278.198   L278.198,334.228z" />
<path
       id="path13"
       sketch:type="MSShapeGroup"
       fill="#0E4595"
       d="M524.307,142.687c-10.57-3.966-27.135-8.222-47.822-8.222   c-52.725,0-89.863,26.551-90.18,64.604c-0.297,28.129,26.514,43.821,46.754,53.185c20.77,9.597,27.752,15.716,27.652,24.283   c-0.133,13.123-16.586,19.116-31.924,19.116c-21.355,0-32.701-2.967-50.225-10.274l-6.877-3.112l-7.488,43.823   c12.463,5.466,35.508,10.199,59.438,10.445c56.09,0,92.502-26.248,92.916-66.884c0.199-22.27-14.016-39.216-44.801-53.188   c-18.65-9.056-30.072-15.099-29.951-24.269c0-8.137,9.668-16.838,30.559-16.838c17.447-0.271,30.088,3.534,39.936,7.5l4.781,2.259   L524.307,142.687" />
<path
       id="Path"
       sketch:type="MSShapeGroup"
       fill="#0E4595"
       d="M661.615,138.464h-41.23c-12.773,0-22.332,3.486-27.941,16.234   l-79.244,179.402h56.031c0,0,9.16-24.121,11.232-29.418c6.123,0,60.555,0.084,68.336,0.084c1.596,6.854,6.492,29.334,6.492,29.334   h49.512L661.615,138.464L661.615,138.464z M596.198,264.872c4.414-11.279,21.26-54.724,21.26-54.724   c-0.314,0.521,4.381-11.334,7.074-18.684l3.607,16.878c0,0,10.217,46.729,12.352,56.527h-44.293V264.872L596.198,264.872z" />
<path
       d="M 45.878906 138.46484 L 45.197266 142.53711 C 66.290228 147.64311 85.129273 155.0333 101.62305 164.22656 L 148.96875 333.91406 L 205.42383 333.85156 L 289.42773 138.46484 L 232.90234 138.46484 L 180.66406 271.96094 L 175.09961 244.83008 C 174.83893 243.99185 174.55554 243.15215 174.26562 242.31055 L 156.10547 154.99219 C 152.87647 142.59619 143.50892 138.89684 131.91992 138.46484 L 45.878906 138.46484 z "
       id="path16"
       style="fill:#0e4595;fill-opacity:1" />
</g>
</svg>

<?xml version="1.0" encoding="UTF-8" standalone="no"?>
<!-- Uploaded to: SVG Repo, www.svgrepo.com, Generator: SVG Repo Mixer Tools -->
<svg 
   xmlns:dc="http://purl.org/dc/elements/1.1/"
   xmlns:cc="http://creativecommons.org/ns#"
   xmlns:rdf="http://www.w3.org/1999/02/22-rdf-syntax-ns#"
   xmlns:svg="http://www.w3.org/2000/svg"
   xmlns="http://www.w3.org/2000/svg"
   xmlns:sodipodi="http://sodipodi.sourceforge.net/DTD/sodipodi-0.dtd"
   xmlns:inkscape="http://www.inkscape.org/namespaces/inkscape"
   width="750"
   height="471"
   viewBox="0 0 750 471"
   version="1.1"
   id="svg14"
   sodipodi:docname="visa.svg"
   inkscape:version="0.92.2 5c3e80d, 2017-08-06">
  <metadata
     id="metadata18">
    <rdf:RDF>
      <cc:Work
         rdf:about="">
        <dc:format>image/svg+xml</dc:format>
        <dc:type
           rdf:resource="http://purl.org/dc/dcmitype/StillImage" />
      </cc:Work>
    </rdf:RDF>
  </metadata>
  <sodipodi:namedview
     pagecolor="#ffffff"
     bordercolor="#666666"
     borderopacity="1"
     objecttolerance="10"
     gridtolerance="10"
     guidetolerance="10"
     inkscape:pageopacity="0"
     inkscape:pageshadow="2"
     inkscape:window-width="1515"
     inkscape:window-height="928"
     id="namedview16"
     showgrid="false"
     inkscape:zoom="0.384"
     inkscape:cx="83.333333"
     inkscape:cy="235.5"
     inkscape:window-x="2301"
     inkscape:window-y="293"
     inkscape:window-maximized="0"
     inkscape:current-layer="Page-1" />
  
  <desc
     id="desc2">Created with Sketch.</desc>
  <defs
     id="defs4" />
  <g
     id="Page-1"
     stroke="none"
     stroke-width="1"
     fill="none"
     fill-rule="evenodd">
    <g
       id="visa"
       fill-rule="nonzero">
      <rect
         id="Rectangle-1"
         fill="#0E4595"
         x="0"
         y="0"
         width="750"
         height="471"
         rx="40" />
      <polygon
         id="Shape"
         fill="#FFFFFF"
         points="278.1975 334.2275 311.5585 138.4655 364.9175 138.4655 331.5335 334.2275" />
      <path
         d="M524.3075,142.6875 C513.7355,138.7215 497.1715,134.4655 476.4845,134.4655 C423.7605,134.4655 386.6205,161.0165 386.3045,199.0695 C386.0075,227.1985 412.8185,242.8905 433.0585,252.2545 C453.8275,261.8495 460.8105,267.9695 460.7115,276.5375 C460.5795,289.6595 444.1255,295.6545 428.7885,295.6545 C407.4315,295.6545 396.0855,292.6875 378.5625,285.3785 L371.6865,282.2665 L364.1975,326.0905 C376.6605,331.5545 399.7065,336.2895 423.6355,336.5345 C479.7245,336.5345 516.1365,310.2875 516.5505,269.6525 C516.7515,247.3835 502.5355,230.4355 471.7515,216.4645 C453.1005,207.4085 441.6785,201.3655 441.7995,192.1955 C441.7995,184.0585 451.4675,175.3575 472.3565,175.3575 C489.8055,175.0865 502.4445,178.8915 512.2925,182.8575 L517.0745,185.1165 L524.3075,142.6875"
         id="path13"
         fill="#FFFFFF" />
      <path
         d="M661.6145,138.4655 L620.3835,138.4655 C607.6105,138.4655 598.0525,141.9515 592.4425,154.6995 L513.1975,334.1025 L569.2285,334.1025 C569.2285,334.1025 578.3905,309.9805 580.4625,304.6845 C586.5855,304.6845 641.0165,304.7685 648.7985,304.7685 C650.3945,311.6215 655.2905,334.1025 655.2905,334.1025 L704.8025,334.1025 L661.6145,138.4655 Z M596.1975,264.8725 C600.6105,253.5935 617.4565,210.1495 617.4565,210.1495 C617.1415,210.6705 621.8365,198.8155 624.5315,191.4655 L628.1385,208.3435 C628.1385,208.3435 638.3555,255.0725 640.4905,264.8715 L596.1975,264.8715 L596.1975,264.8725 Z"
         id="Path"
         fill="#FFFFFF" />
      <path
         d="M 45.878906 138.46484 L 45.197266 142.53906 C 66.288263 147.64458 85.126465 155.03257 101.61914 164.22461 L 148.96484 333.91602 L 205.41992 333.84961 L 289.42383 138.46484 L 232.90234 138.46484 L 180.66211 271.96094 L 175.0957 244.83203 C 174.83824 244.00408 174.55942 243.17304 174.27344 242.3418 L 156.10742 154.99219 C 152.87742 142.59619 143.50892 138.89684 131.91992 138.46484 L 45.878906 138.46484 z "
         id="path16"
         style="fill:#ffffff;fill-opacity:1" />
    </g>
  </g>
</svg>
